public/assets/img/icone_lupa_pin.svg

<svg height="512" viewBox="0 0 512 512" width="512" xmlns="http://www.w3.org/2000/svg"><g id="_02-search" data-name="02-search"><g id="glyph"><path d="m502.52 447.813a24.1 24.1 0 0 0 -8.019-17.227l-138.078-123.108a202.683 202.683 0 0 1 -48.945 48.945l123.108 138.077c8.716 10.185 25.595 10.673 34.885 1l30.029-30.029a24.1 24.1 0 0 0 7.02-17.658z"/><path d="m381 192c0-104.215-84.785-189-189-189s-189 84.785-189 189 84.785 189 189 189 189-84.785 189-189zm-189 144c-79.4 0-144-64.6-144-144s64.6-144 144-144 144 64.6 144 144-64.6 144-144 144z"/><path d="m192 92a84.1 84.1 0 0 0 -84 84c0 22.962 13.148 49.214 39.081 78.027a323.174 323.174 0 0 0 37.552 35.445 12 12 0 0 0 14.734 0 323.174 323.174 0 0 0 37.552-35.445c25.933-28.813 39.081-55.065 39.081-78.027a84.1 84.1 0 0 0 -84-84zm0 124a40 40 0 1 1 40-40 40.045 40.045 0 0 1 -40 40z"/></g></g></svg>

<?xml version="1.0" encoding="utf-8"?>
<!-- Generator: Adobe Illustrator 24.0.1, SVG Export Plug-In . SVG Version: 6.00 Build 0)  -->
<svg version="1.1" id="Layer_1" xmlns="http://www.w3.org/2000/svg" xmlns:xlink="http://www.w3.org/1999/xlink" x="0px" y="0px"
	 viewBox="0 0 512 512" style="enable-background:new 0 0 512 512;" xml:space="preserve">
<style type="text/css">
	.st0{fill:#FFFFFF;}
</style>
<g id="_02-search">
	<g id="glyph">
		<path class="st0" d="M502.5,447.8c-0.2-6.6-3.1-12.8-8-17.2L356.4,307.5c-13.4,19-29.9,35.6-48.9,48.9l123.1,138.1
			c8.7,10.2,25.6,10.7,34.9,1l30-30C500.2,460.8,502.7,454.4,502.5,447.8L502.5,447.8z"/>
		<path class="st0" d="M381,192C381,87.8,296.2,3,192,3S3,87.8,3,192s84.8,189,189,189S381,296.2,381,192z M192,336
			c-79.4,0-144-64.6-144-144S112.6,48,192,48s144,64.6,144,144S271.4,336,192,336z"/>
		<path class="st0" d="M192,92c-46.4,0.1-83.9,37.6-84,84c0,23,13.1,49.2,39.1,78c11.6,12.8,24.1,24.7,37.6,35.4
			c4.3,3.4,10.4,3.4,14.7,0c13.4-10.8,26-22.6,37.6-35.4c25.9-28.8,39.1-55.1,39.1-78C275.9,129.6,238.4,92.1,192,92z M192,216
			c-22.1,0-40-17.9-40-40s17.9-40,40-40s40,17.9,40,40C232,198.1,214.1,216,192,216z"/>
	</g>
</g>
</svg>
